modules/hawcons-filled/icons/icon-35-file-ics.svg

<?xml version="1.0" encoding="UTF-8" standalone="no"?>
<svg width="32px" height="32px" viewBox="0 0 32 32" version="1.1" xmlns="http://www.w3.org/2000/svg" xmlns:xlink="http://www.w3.org/1999/xlink" xmlns:sketch="http://www.bohemiancoding.com/sketch/ns">
    <!-- Generator: Sketch 3.0.3 (7891) - http://www.bohemiancoding.com/sketch -->
    <title>icon 35 file ics</title>
    <desc>Created with Sketch.</desc>
    <defs></defs>
    <g id="Page-1" stroke="none" stroke-width="1" fill="none" fill-rule="evenodd" sketch:type="MSPage">
        <g id="icon-35-file-ics" sketch:type="MSArtboardGroup" fill="#929292">
            <path d="M8.00684834,10 C6.34621185,10 5,11.3422643 5,12.9987856 L5,20.0012144 C5,21.6573979 6.33599155,23 8.00684834,23 L24.9931517,23 C26.6537881,23 28,21.6577357 28,20.0012144 L28,12.9987856 C28,11.3426021 26.6640085,10 24.9931517,10 L8.00684834,10 L8.00684834,10 Z M10,14 L10,19 L9,19 L9,20 L12,20 L12,19 L11,19 L11,14 L12,14 L12,13 L9,13 L9,14 L10,14 L10,14 Z M17.9999916,18 C17.9968339,19.1165689 17.1004316,20 15.9951185,20 L15.0048815,20 C13.8938998,20 13,19.1019194 13,17.9940809 L13,15.0059191 C13,13.8865548 13.897616,13 15.0048815,13 L15.9951185,13 C17.1041209,13 17.9968142,13.8948834 17.9999915,15 L17,15 C17,14.4476291 16.5573397,14 16.0010434,14 L14.9989566,14 C14.4472481,14 14,14.4437166 14,14.9998075 L14,18.0001925 C14,18.5523709 14.4426603,19 14.9989566,19 L16.0010434,19 C16.5527519,19 17,18.5562834 17,18.0001925 L17.9999923,18 L17.9999916,18 L17.9999916,18 Z M21.0048815,13 C19.897616,13 19,13.8877296 19,15 C19,16.1045695 19.8877296,17 21,17 L21.9906311,17 C22.5480902,17 23,17.4438648 23,18 C23,18.5522847 22.5573397,19 22.0010434,19 L20.9989566,19 C20.4472481,19 20,18.543716 20,18.0044713 L20,17.9931641 L19,17.9931641 L19,17.998921 C19,19.1040864 19.8938998,20 21.0048815,20 L21.9951185,20 C23.102384,20 24,19.1122704 24,18 C24,16.8954305 23.1122704,16 22,16 L21.0093689,16 C20.4519098,16 20,15.5561352 20,15 C20,14.4477153 20.4426603,14 20.9989566,14 L22.0010434,14 C22.5527519,14 23,14.453186 23,15 L24,15 C24,13.8954305 23.1061002,13 21.9951185,13 L21.0048815,13 L21.0048815,13 Z" id="file-ics" sketch:type="MSShapeGroup"></path>
        </g>
    </g>
</svg>

<svg width="32" height="32" xmlns="http://www.w3.org/2000/svg"><path d="M8.007 10A3.003 3.003 0 0 0 5 12.999V20A2.996 2.996 0 0 0 8.007 23h16.986A3.003 3.003 0 0 0 28 20.001V13A2.996 2.996 0 0 0 24.993 10H8.007zM10 14v5H9v1h3v-1h-1v-5h1v-1H9v1h1zm8 4c-.003 1.117-.9 2-2.005 2h-.99A2.003 2.003 0 0 1 13 17.994v-2.988c0-1.12.898-2.006 2.005-2.006h.99c1.11 0 2.002.895 2.005 2h-1c0-.552-.443-1-.999-1h-1.002A.997.997 0 0 0 14 15v3c0 .552.443 1 .999 1h1.002A.997.997 0 0 0 17 18h1zm3.005-5A1.998 1.998 0 0 0 19 15c0 1.105.888 2 2 2h.99c.558 0 1.01.444 1.01 1 0 .552-.443 1-.999 1h-1.002c-.552 0-.999-.456-.999-.996v-.01h-1v.005A2 2 0 0 0 21.005 20h.99A1.998 1.998 0 0 0 24 18c0-1.105-.888-2-2-2h-.99c-.558 0-1.01-.444-1.01-1 0-.552.443-1 .999-1h1.002c.552 0 .999.453.999 1h1a2 2 0 0 0-2.005-2h-.99z" fill="#929292" fill-rule="evenodd"/></svg>
